src/assets/IconDispute.svg

<svg width="557" height="557" fill="none" xmlns="http://www.w3.org/2000/svg"><path fill-rule="evenodd" clip-rule="evenodd" d="M278.5 557C432.311 557 557 432.311 557 278.5S432.311 0 278.5 0 0 124.689 0 278.5 124.689 557 278.5 557z" fill="url(#paint0_linear)"/><path opacity=".668" d="M278.236 186.378H118.234v184.756h160.002V186.378z" fill="url(#paint1_linear)"/><path opacity=".668" d="M438.24 186.378H278.238v184.756H438.24V186.378z" fill="url(#paint2_linear)"/><path d="M278.235 278.753l-28.868 92.379 28.868 92.379 160.002-92.379-160.002-92.379z" fill="url(#paint3_linear)"/><path d="M118.234 371.132l160.002 92.379V278.753l-160.002 92.379z" fill="url(#paint4_linear)"/><path d="M278.235 94l-28.868 92.379 28.868 92.38 160.002-92.38L278.235 94z" fill="url(#paint5_linear)"/><path d="M118.234 186.379l160.002 92.38V94l-160.002 92.379z" fill="url(#paint6_linear)"/><defs><linearGradient id="paint0_linear" x1="861.609" y1="-250.65" x2="-22.058" y2="418.733" gradientUnits="userSpaceOnUse"><stop stop-color="#FFB36D"/><stop offset="1" stop-color="#F88"/></linearGradient><linearGradient id="paint1_linear" x1="329.113" y1="324.945" x2="234.493" y2="220.72" gradientUnits="userSpaceOnUse"><stop stop-color="#FFE6DC"/><stop offset="1" stop-color="#FFDBCE"/></linearGradient><linearGradient id="paint2_linear" x1="489.117" y1="324.945" x2="394.497" y2="220.72" gradientUnits="userSpaceOnUse"><stop stop-color="#FFE6DC"/><stop offset="1" stop-color="#FFDBCE"/></linearGradient><linearGradient id="paint3_linear" x1="354.226" y1="433.03" x2="417.62" y2="276.35" gradientUnits="userSpaceOnUse"><stop stop-color="#FFC9B4"/><stop offset="1" stop-color="#FFA48E"/></linearGradient><linearGradient id="paint4_linear" x1="207.066" y1="433.03" x2="277.974" y2="284.566" gradientUnits="userSpaceOnUse"><stop stop-color="#FFC9B4"/><stop offset="1" stop-color="#FFA48E"/></linearGradient><linearGradient id="paint5_linear" x1="498.294" y1="232.569" x2="406.414" y2="113.105" gradientUnits="userSpaceOnUse"><stop stop-color="#FFCEBB"/><stop offset="1" stop-color="#FFE6DD"/></linearGradient><linearGradient id="paint6_linear" x1="329.113" y1="232.569" x2="234.491" y2="128.344" gradientUnits="userSpaceOnUse"><stop stop-color="#FFCEBB"/><stop offset="1" stop-color="#FFF2ED"/></linearGradient></defs></svg>

<svg width="557" height="557" viewBox="0 0 557 557" fill="none" xmlns="http://www.w3.org/2000/svg">
<path fill-rule="evenodd" clip-rule="evenodd" d="M278.5 557C432.311 557 557 432.311 557 278.5C557 124.689 432.311 0 278.5 0C124.689 0 0 124.689 0 278.5C0 432.311 124.689 557 278.5 557Z" fill="url(#paint0_linear)"/>
<path opacity="0.668271" d="M278.236 186.378H118.234V371.134H278.236V186.378Z" fill="url(#paint1_linear)"/>
<path opacity="0.668271" d="M438.24 186.378H278.238V371.134H438.24V186.378Z" fill="url(#paint2_linear)"/>
<path d="M278.235 278.753L249.367 371.132L278.235 463.511L438.237 371.132L278.235 278.753Z" fill="url(#paint3_linear)"/>
<path d="M118.234 371.132L278.236 463.511V278.753L118.234 371.132Z" fill="url(#paint4_linear)"/>
<path d="M278.235 94L249.367 186.379L278.235 278.759L438.237 186.379L278.235 94Z" fill="url(#paint5_linear)"/>
<path d="M118.234 186.379L278.236 278.759V94L118.234 186.379Z" fill="url(#paint6_linear)"/>
<defs>
<linearGradient id="paint0_linear" x1="861.609" y1="-250.65" x2="-22.0584" y2="418.733" gradientUnits="userSpaceOnUse">
<stop stop-color="#FFB36D"/>
<stop offset="1" stop-color="#FF8888"/>
</linearGradient>
<linearGradient id="paint1_linear" x1="329.113" y1="324.945" x2="234.493" y2="220.72" gradientUnits="userSpaceOnUse">
<stop stop-color="#FFE6DC"/>
<stop offset="1" stop-color="#FFDBCE"/>
</linearGradient>
<linearGradient id="paint2_linear" x1="489.117" y1="324.945" x2="394.497" y2="220.72" gradientUnits="userSpaceOnUse">
<stop stop-color="#FFE6DC"/>
<stop offset="1" stop-color="#FFDBCE"/>
</linearGradient>
<linearGradient id="paint3_linear" x1="354.226" y1="433.03" x2="417.62" y2="276.35" gradientUnits="userSpaceOnUse">
<stop stop-color="#FFC9B4"/>
<stop offset="1" stop-color="#FFA48E"/>
</linearGradient>
<linearGradient id="paint4_linear" x1="207.066" y1="433.03" x2="277.974" y2="284.566" gradientUnits="userSpaceOnUse">
<stop stop-color="#FFC9B4"/>
<stop offset="1" stop-color="#FFA48E"/>
</linearGradient>
<linearGradient id="paint5_linear" x1="498.294" y1="232.569" x2="406.414" y2="113.105" gradientUnits="userSpaceOnUse">
<stop stop-color="#FFCEBB"/>
<stop offset="1" stop-color="#FFE6DD"/>
</linearGradient>
<linearGradient id="paint6_linear" x1="329.113" y1="232.569" x2="234.491" y2="128.344" gradientUnits="userSpaceOnUse">
<stop stop-color="#FFCEBB"/>
<stop offset="1" stop-color="#FFF2ED"/>
</linearGradient>
</defs>
</svg>
